REACT_GL/src/assets/PoolIcon.svg

<svg fill="none" height="70" viewBox="0 0 70 70" width="70" xmlns="http://www.w3.org/2000/svg"><g fill="#090909"><path d="m63.29 58.6863c-.0561.0465-5.5645 4.6485-14.1641 4.6485-7.0246 0-11.04-2.9053-12.9691-4.3012l-1.0418-.7397c-1.9948-1.4191-6.6637-4.7441-14.2407-4.7441-9.3857 0-15.24546 4.9219-15.49018 5.1365-.20074.1774-.32375.4265-.34254.6937s.06816.5311.2421.7348c.17394.2038.42095.331.6878.3543.26686.0233.53218-.0592.73881-.2296.05605-.0479 5.56441-4.6485 14.16401-4.6485 6.9235 0 11.0661 2.949 13.0567 4.3654l1.0295.7315c2.1027 1.5217 6.4791 4.6881 14.1654 4.6881 9.3858 0 15.2455-4.9287 15.4902-5.1379.1948-.179.3125-.4265.3284-.6905s-.0713-.5239-.2431-.7249c-.1718-.2011-.4149-.3277-.6782-.3531-.2632-.0254-.5261.0523-.7332.2167z"/><path d="m63.2903 48.9012c-.0561.0465-5.5645 4.6484-14.1641 4.6484-7.0232 0-11.0386-2.9053-12.9677-4.2998l-1.0405-.7383c-1.9947-1.4205-6.6636-4.7469-14.2433-4.7469-9.3858 0-15.24554 4.9288-15.49027 5.1379-.18295.1818-.29034.4261-.30061.6838s.07735.5098.24525.7056c.16791.1957.40366.3207.65993.3498.25626.0292.51405-.0398.7216-.1929.05606-.0465 5.5645-4.6484 14.1641-4.6484 6.9261 0 11.0742 2.9518 13.058 4.3682l1.0295.73c2.1041 1.5217 6.4804 4.6868 14.164 4.6868 9.3858 0 15.2455-4.9219 15.4903-5.1366.2007-.1773.3237-.4265.3425-.6937s-.0682-.5311-.2421-.7348-.421-.3309-.6878-.3542c-.2669-.0233-.5322.0591-.7388.2296z"/><path d="m63.2897 39.117c-.056.0465-5.5644 4.6484-14.164 4.6484-7.0219 0-11.0373-2.9039-12.9678-4.2998l-1.0404-.7383c-1.9948-1.4205-6.6637-4.7468-14.2434-4.7468-9.3857 0-15.2455 4.9218-15.49022 5.1379-.19472.1789-.31242.4265-.32832.6905s.07123.5238.24306.7249c.17182.2011.41495.3276.6782.353.26325.0255.5261-.0522.73323-.2167.05605-.0465 5.56445-4.6484 14.16405-4.6484 6.9262 0 11.0742 2.9504 13.058 4.3681l1.0295.7301c2.1041 1.5217 6.4805 4.6867 14.1641 4.6867 9.3898-.0054 15.2455-4.9273 15.4902-5.1378.1947-.179.3124-.4266.3283-.6906s-.0712-.5238-.243-.7249c-.1719-.201-.415-.3276-.6782-.353-.2633-.0254-.5261.0522-.7333.2167z"/><path d="m63.29 29.3316c-.0561.0465-5.5645 4.6485-14.1641 4.6485-7.0246 0-11.04-2.9053-12.9691-4.3012l-1.0391-.7369c-1.9947-1.4205-6.6637-4.7428-14.2434-4.7428-9.3898 0-15.24546 4.9219-15.49018 5.1324-.20074.1774-.32375.4265-.34254.6937-.01879.2673.06816.5311.2421.7349.17394.2037.42095.3309.6878.3542.26686.0233.53218-.0592.73881-.2296.05605-.0479 5.56441-4.6485 14.16401-4.6485 6.9262 0 11.0743 2.9504 13.0581 4.3682l1.0281.7287c2.1027 1.5217 6.4791 4.6881 14.1654 4.6881 9.3858 0 15.2455-4.9287 15.4902-5.1379.1948-.179.3125-.4265.3284-.6905s-.0713-.5239-.2431-.7249c-.1718-.2011-.4149-.3277-.6782-.3531-.2632-.0254-.5261.0523-.7332.2167z"/><path d="m63.2897 19.5506c-.056.0478-5.5644 4.6484-14.164 4.6484-7.0246 0-11.0401-2.9039-12.9692-4.2998l-1.039-.7383c-1.9948-1.4205-6.6637-4.7468-14.2434-4.7468-9.3898-.0055-15.2455 4.9232-15.49022 5.1365-.19472.179-.31242.4265-.32832.6905s.07123.5239.24306.7249c.17182.2011.41495.3276.6782.3531.26325.0254.5261-.0523.73323-.2168.05605-.0464 5.56445-4.6484 14.16405-4.6484 6.9262 0 11.0742 2.9518 13.058 4.375l1.0281.7287c2.1028 1.5203 6.4791 4.6881 14.1655 4.6881 9.3857 0 15.2455-4.9287 15.4902-5.1379.2007-.1773.3238-.4265.3425-.6937.0188-.2672-.0681-.5311-.2421-.7348-.1739-.2037-.4209-.3309-.6878-.3542-.2668-.0233-.5321.0591-.7388.2296z"/><path d="m6.71005 11.3137c.05605-.0465 5.56445-4.64847 14.16405-4.64847 6.9234 0 11.066 2.9504 13.0567 4.36677l1.0294.726c2.1028 1.5217 6.4791 4.6881 14.1655 4.6881 9.3857 0 15.2455-4.9219 15.4902-5.1365.2007-.1774.3238-.4265.3425-.6937.0188-.2672-.0681-.5311-.2421-.73484-.1739-.20371-.4209-.33093-.6878-.35424-.2668-.02331-.5321.05916-.7388.22963-.056.04785-5.5644 4.64845-14.164 4.64845-7.0246 0-11.0401-2.9039-12.9692-4.2998l-1.0418-.73967c-1.9947-1.41641-6.6636-4.74141-14.2406-4.74141-9.3898 0-15.2455 4.92871-15.49022 5.13789-.19472.17898-.31242.42649-.32832.69049s.07123.5239.24306.7249c.17182.2011.41495.3277.6782.3531s.5261-.0523.73323-.2167z"/></g></svg>

<svg width="70" height="70" viewBox="0 0 70 70" fill="none" xmlns="http://www.w3.org/2000/svg">
<path d="M63.29 58.6863C63.2339 58.7328 57.7255 63.3348 49.1259 63.3348C42.1013 63.3348 38.0859 60.4295 36.1568 59.0336L35.115 58.2939C33.1202 56.8748 28.4513 53.5498 20.8743 53.5498C11.4886 53.5498 5.62884 58.4717 5.38412 58.6863C5.18338 58.8637 5.06037 59.1128 5.04158 59.38C5.02279 59.6472 5.10974 59.9111 5.28368 60.1148C5.45762 60.3186 5.70463 60.4458 5.97148 60.4691C6.23834 60.4924 6.50366 60.4099 6.71029 60.2395C6.76634 60.1916 12.2747 55.591 20.8743 55.591C27.7978 55.591 31.9404 58.54 33.931 59.9564L34.9605 60.6879C37.0632 62.2096 41.4396 65.376 49.1259 65.376C58.5117 65.376 64.3714 60.4473 64.6161 60.2381C64.8109 60.0591 64.9286 59.8116 64.9445 59.5476C64.9604 59.2836 64.8732 59.0237 64.7014 58.8227C64.5296 58.6216 64.2865 58.495 64.0232 58.4696C63.76 58.4442 63.4971 58.5219 63.29 58.6863Z" fill="#090909"/>
<path d="M63.2903 48.9012C63.2342 48.9477 57.7258 53.5496 49.1262 53.5496C42.103 53.5496 38.0876 50.6443 36.1585 49.2498L35.118 48.5115C33.1233 47.091 28.4544 43.7646 20.8747 43.7646C11.4889 43.7646 5.62916 48.6934 5.38443 48.9025C5.20148 49.0843 5.09409 49.3286 5.08382 49.5863C5.07355 49.844 5.16117 50.0961 5.32907 50.2919C5.49698 50.4876 5.73273 50.6126 5.989 50.6417C6.24526 50.6709 6.50305 50.6019 6.7106 50.4488C6.76666 50.4023 12.2751 45.8004 20.8747 45.8004C27.8008 45.8004 31.9489 48.7522 33.9327 50.1686L34.9622 50.8986C37.0663 52.4203 41.4426 55.5854 49.1262 55.5854C58.512 55.5854 64.3717 50.6635 64.6165 50.4488C64.8172 50.2715 64.9402 50.0223 64.959 49.7551C64.9778 49.4879 64.8908 49.224 64.7169 49.0203C64.543 48.8166 64.2959 48.6894 64.0291 48.6661C63.7622 48.6428 63.4969 48.7252 63.2903 48.8957V48.9012Z" fill="#090909"/>
<path d="M63.2897 39.117C63.2337 39.1635 57.7253 43.7654 49.1257 43.7654C42.1038 43.7654 38.0884 40.8615 36.1579 39.4656L35.1175 38.7273C33.1227 37.3068 28.4538 33.9805 20.8741 33.9805C11.4884 33.9805 5.6286 38.9023 5.38388 39.1184C5.18916 39.2973 5.07146 39.5449 5.05556 39.8089C5.03966 40.0729 5.12679 40.3327 5.29862 40.5338C5.47044 40.7349 5.71357 40.8614 5.97682 40.8868C6.24007 40.9123 6.50292 40.8346 6.71005 40.6701C6.7661 40.6236 12.2745 36.0217 20.8741 36.0217C27.8003 36.0217 31.9483 38.9721 33.9321 40.3898L34.9616 41.1199C37.0657 42.6416 41.4421 45.8066 49.1257 45.8066C58.5155 45.8012 64.3712 40.8793 64.6159 40.6688C64.8106 40.4898 64.9283 40.2422 64.9442 39.9782C64.9601 39.7142 64.873 39.4544 64.7012 39.2533C64.5293 39.0523 64.2862 38.9257 64.023 38.9003C63.7597 38.8749 63.4969 38.9525 63.2897 39.117Z" fill="#090909"/>
<path d="M63.29 29.3316C63.2339 29.3781 57.7255 33.9801 49.1259 33.9801C42.1013 33.9801 38.0859 31.0748 36.1568 29.6789L35.1177 28.942C33.123 27.5215 28.454 24.1992 20.8743 24.1992C11.4845 24.1992 5.62884 29.1211 5.38412 29.3316C5.18338 29.509 5.06037 29.7581 5.04158 30.0253C5.02279 30.2926 5.10974 30.5564 5.28368 30.7602C5.45762 30.9639 5.70463 31.0911 5.97148 31.1144C6.23834 31.1377 6.50366 31.0552 6.71029 30.8848C6.76634 30.8369 12.2747 26.2363 20.8743 26.2363C27.8005 26.2363 31.9486 29.1867 33.9324 30.6045L34.9605 31.3332C37.0632 32.8549 41.4396 36.0213 49.1259 36.0213C58.5117 36.0213 64.3714 31.0926 64.6161 30.8834C64.8109 30.7044 64.9286 30.4569 64.9445 30.1929C64.9604 29.9289 64.8732 29.669 64.7014 29.468C64.5296 29.2669 64.2865 29.1403 64.0232 29.1149C63.76 29.0895 63.4971 29.1672 63.29 29.3316Z" fill="#090909"/>
<path d="M63.2897 19.5506C63.2337 19.5984 57.7253 24.199 49.1257 24.199C42.1011 24.199 38.0856 21.2951 36.1565 19.8992L35.1175 19.1609C33.1227 17.7404 28.4538 14.4141 20.8741 14.4141C11.4843 14.4086 5.6286 19.3373 5.38388 19.5506C5.18916 19.7296 5.07146 19.9771 5.05556 20.2411C5.03966 20.5051 5.12679 20.765 5.29862 20.966C5.47044 21.1671 5.71357 21.2936 5.97682 21.3191C6.24007 21.3445 6.50292 21.2668 6.71005 21.1023C6.7661 21.0559 12.2745 16.4539 20.8741 16.4539C27.8003 16.4539 31.9483 19.4057 33.9321 20.8289L34.9602 21.5576C37.063 23.0779 41.4393 26.2457 49.1257 26.2457C58.5114 26.2457 64.3712 21.317 64.6159 21.1078C64.8166 20.9305 64.9397 20.6813 64.9584 20.4141C64.9772 20.1469 64.8903 19.883 64.7163 19.6793C64.5424 19.4756 64.2954 19.3484 64.0285 19.3251C63.7617 19.3018 63.4964 19.3842 63.2897 19.5547V19.5506Z" fill="#090909"/>
<path d="M6.71005 11.3137C6.7661 11.2672 12.2745 6.66523 20.8741 6.66523C27.7975 6.66523 31.9401 9.61563 33.9308 11.032L34.9602 11.758C37.063 13.2797 41.4393 16.4461 49.1257 16.4461C58.5114 16.4461 64.3712 11.5242 64.6159 11.3096C64.8166 11.1322 64.9397 10.8831 64.9584 10.6159C64.9772 10.3487 64.8903 10.0848 64.7163 9.88106C64.5424 9.67735 64.2954 9.55013 64.0285 9.52682C63.7617 9.50351 63.4964 9.58598 63.2897 9.75645C63.2337 9.8043 57.7253 14.4049 49.1257 14.4049C42.1011 14.4049 38.0856 11.501 36.1565 10.1051L35.1147 9.36543C33.12 7.94902 28.4511 4.62402 20.8741 4.62402C11.4843 4.62402 5.6286 9.55273 5.38388 9.76191C5.18916 9.94089 5.07146 10.1884 5.05556 10.4524C5.03966 10.7164 5.12679 10.9763 5.29862 11.1773C5.47044 11.3784 5.71357 11.505 5.97682 11.5304C6.24007 11.5558 6.50292 11.4781 6.71005 11.3137Z" fill="#090909"/>
</svg>
